assets/coins/svg/BTT.svg

<svg width="64" height="64" viewBox="0 0 64 64" fill="none" xmlns="http://www.w3.org/2000/svg">
<g clip-path="url(#clip0_40_26593)">
<mask id="mask0_40_26593" style="mask-type:luminance" maskUnits="userSpaceOnUse" x="0" y="0" width="64" height="64">
<path d="M32 64C49.6731 64 64 49.6731 64 32C64 14.3269 49.6731 0 32 0C14.3269 0 0 14.3269 0 32C0 49.6731 14.3269 64 32 64Z" fill="white"/>
</mask>
<g mask="url(#mask0_40_26593)">
<path d="M32 64C49.6731 64 64 49.6731 64 32C64 14.3269 49.6731 0 32 0C14.3269 0 0 14.3269 0 32C0 49.6731 14.3269 64 32 64Z" fill="black"/>
<path d="M55.486 27.078C55.1684 25.5414 54.6994 24.0401 54.086 22.596C53.4841 21.1735 52.7474 19.812 51.886 18.53C50.1667 15.994 47.9805 13.8085 45.444 12.09C44.16 11.2329 42.7996 10.4964 41.38 9.88996C36.2825 7.74889 30.6007 7.43965 25.3009 9.01481C20.0011 10.59 15.4106 13.9523 12.31 18.53C11.4528 19.8145 10.7163 21.1757 10.11 22.596C8.8647 25.532 8.22296 28.6887 8.22296 31.878C8.22296 35.0672 8.8647 38.2239 10.11 41.16C10.7126 42.5814 11.4493 43.9422 12.31 45.224C14.0285 47.7611 16.2148 49.9475 18.752 51.666C20.036 52.523 21.3964 53.2594 22.816 53.866C25.7521 55.1112 28.9087 55.753 32.098 55.753C35.2872 55.753 38.4439 55.1112 41.38 53.866C42.8014 53.2633 44.1622 52.5267 45.444 51.666C47.9811 49.9475 50.1675 47.7611 51.886 45.224C52.743 43.94 53.4794 42.5795 54.086 41.16C55.9714 36.7169 56.4597 31.8052 55.486 27.078ZM32.12 52.768C27.9932 52.768 23.959 51.5442 20.5277 49.2515C17.0963 46.9588 14.4219 43.7001 12.8425 39.8875C11.2631 36.0748 10.8498 31.8795 11.6548 27.8319C12.4597 23.7844 14.4468 20.0664 17.3648 17.1482C20.2827 14.2299 24.0005 12.2425 28.048 11.4371C32.0955 10.6318 36.2909 11.0447 40.1037 12.6237C43.9165 14.2027 47.1754 16.8768 49.4685 20.308C51.7615 23.7391 52.9856 27.7731 52.986 31.9C52.9861 34.6402 52.4465 37.3537 51.398 39.8855C50.3494 42.4172 48.8125 44.7177 46.8749 46.6554C44.9373 48.5932 42.637 50.1304 40.1054 51.1792C37.5737 52.228 34.8603 52.7678 32.12 52.768Z" fill="white"/>
<path d="M32.49 50.9561H33.054C33.152 50.9604 33.2502 50.9516 33.346 50.9301H33.372C33.462 50.934 33.5521 50.926 33.64 50.9061H33.714C33.7881 50.9101 33.8624 50.902 33.934 50.8821H34.008C34.082 50.8821 34.156 50.8581 34.254 50.8581H34.3C34.4 50.8581 34.5 50.8321 34.594 50.8321C34.6857 50.8278 34.7764 50.8116 34.864 50.7841H34.912C34.986 50.7841 35.06 50.7601 35.132 50.7601H35.182C35.282 50.7341 35.354 50.7341 35.452 50.7101C35.6421 50.6832 35.8299 50.6424 36.014 50.5881H36.064C36.136 50.5641 36.234 50.5641 36.308 50.5381H36.332C36.532 50.4901 36.7 50.4381 36.896 50.3921C35.0616 50.4502 33.2273 50.2775 31.436 49.8781C28.7109 49.3467 26.1557 48.1614 23.99 46.4241C22.2714 44.9938 20.8921 43.1995 19.952 41.1708C19.0118 39.1422 18.5343 36.9299 18.554 34.6941C18.5716 31.3585 19.7585 28.1348 21.908 25.5841C23.2435 24.0068 24.8998 22.7322 26.7665 21.8452C28.6333 20.9582 30.6676 20.4792 32.734 20.4401H33.3V17.1841H32.664C31.4276 17.2067 30.1967 17.3541 28.99 17.6241C27.7756 17.8987 26.5937 18.3009 25.464 18.8241C24.3203 19.3624 23.2364 20.0193 22.23 20.7841C21.1925 21.5727 20.2478 22.4765 19.414 23.4781C18.6282 24.4049 17.9462 25.4149 17.38 26.4901C16.8205 27.5265 16.3688 28.6175 16.032 29.7461C15.7016 30.8572 15.4806 31.998 15.372 33.1521L15.3 34.2281V34.8641C15.3231 36.1004 15.4705 37.3313 15.74 38.5381C16.0146 39.7531 16.4168 40.9356 16.94 42.0661C17.7345 43.8769 18.8744 45.5155 20.296 46.8901C23.6446 49.5299 27.786 50.9625 32.05 50.9561H32.492H32.49Z" fill="white"/>
<path d="M37.828 47.82C36.6201 47.7769 35.4169 47.6458 34.228 47.428C29.184 46.522 24.848 43.436 23.258 38.784C22.7893 37.4517 22.5901 36.0395 22.672 34.6296C22.7538 33.2196 23.1151 31.84 23.7347 30.5708C24.3544 29.3017 25.2202 28.1684 26.2817 27.2368C27.3431 26.3051 28.5792 25.5938 29.918 25.144C30.9913 24.7843 32.1161 24.6019 33.248 24.604C34.6931 24.6083 36.1238 24.8907 37.462 25.436L38.832 22.522C38.42 22.3567 38.004 22.202 37.584 22.058C36.1809 21.6176 34.7187 21.3944 33.248 21.396C29.8704 21.4054 26.613 22.6503 24.09 24.896C23.4156 25.4967 22.8008 26.1612 22.254 26.88C21.7121 27.5905 21.2431 28.3536 20.854 29.158C19.2378 32.4837 19.0083 36.3151 20.216 39.81C20.8396 41.6246 21.8417 43.286 23.156 44.684C24.3929 45.9808 25.8416 47.0576 27.44 47.868C29.4008 48.7937 31.5036 49.3819 33.66 49.608C35.1807 49.7778 36.7099 49.8592 38.24 49.852C39.24 49.484 39.66 49.312 40.2 49.092C40.666 48.872 41.13 48.652 41.6 48.382C42.07 48.112 42.14 48.062 42.922 47.55C42.9931 47.5069 43.06 47.4574 43.122 47.402C41.3823 47.7559 39.6057 47.8956 37.832 47.818L37.828 47.82Z" fill="white"/>
<path d="M43.854 44.1721C43.094 44.2201 42.016 44.2921 40.792 44.2921C38.3817 44.3431 35.978 44.0213 33.666 43.3381C30.138 42.1641 26.808 39.1521 26.808 35.4281C26.8083 33.9438 27.3006 32.5014 28.208 31.3268C29.1154 30.1521 30.3867 29.3114 31.8228 28.9363C33.259 28.5611 34.7789 28.6727 36.1449 29.2535C37.5109 29.8343 38.6458 30.8515 39.372 32.1461L42.286 30.7001C41.8291 29.8399 41.2422 29.0553 40.546 28.3741C39.1556 26.9844 37.3845 26.0381 35.4565 25.6546C33.5285 25.2712 31.5301 25.4678 29.7138 26.2197C27.8975 26.9716 26.3449 28.245 25.252 29.879C24.1592 31.5131 23.5753 33.4343 23.574 35.4001C23.5805 36.7683 23.8735 38.12 24.434 39.3681C24.97 40.5288 25.6892 41.5957 26.564 42.5281C28.2513 44.2958 30.3455 45.6238 32.664 46.3961C35.492 47.1741 38.4364 47.4396 41.358 47.1801C42.2558 47.1155 43.1475 46.9845 44.026 46.7881C45.1126 45.9306 46.0989 44.9531 46.966 43.8741C46.2 43.9521 44.808 44.1001 43.854 44.1721Z" fill="white"/>
</g>
</g>
<defs>
<clipPath id="clip0_40_26593">
<rect width="64" height="64" fill="white"/>
</clipPath>
</defs>
</svg>

<svg xmlns="http://www.w3.org/2000/svg" xmlns:xlink="http://www.w3.org/1999/xlink" width="64" height="64" viewBox="0 0 64 64"><defs><clipPath id="a"><circle cx="32" cy="32" r="32" transform="translate(286 607)" fill="#dedede"/></clipPath></defs><g transform="translate(-286 -607)" clip-path="url(#a)"><g transform="translate(286 607)"><circle cx="32" cy="32" r="32"/><path d="M55.486,27.078a23.772,23.772,0,0,0-1.4-4.482,24.2,24.2,0,0,0-2.2-4.066,24.145,24.145,0,0,0-6.442-6.44,25.036,25.036,0,0,0-4.064-2.2A23.922,23.922,0,0,0,12.31,18.53a25.036,25.036,0,0,0-2.2,4.066,23.772,23.772,0,0,0,0,18.564,24.309,24.309,0,0,0,2.2,4.064,24.113,24.113,0,0,0,6.442,6.442,25.048,25.048,0,0,0,4.064,2.2,23.772,23.772,0,0,0,18.564,0,24.309,24.309,0,0,0,4.064-2.2,24.113,24.113,0,0,0,6.442-6.442,25.049,25.049,0,0,0,2.2-4.064,23.772,23.772,0,0,0,1.4-14.082ZM32.12,52.768A20.866,20.866,0,1,1,52.986,31.9,20.867,20.867,0,0,1,32.12,52.768Z" fill="#fff"/><path d="M32.49,50.956h.564a1.111,1.111,0,0,0,.292-.026h.026a1.014,1.014,0,0,0,.268-.024h.074a.683.683,0,0,0,.22-.024h.074c.074,0,.148-.024.246-.024H34.3c.1,0,.2-.026.294-.026a1.065,1.065,0,0,0,.27-.048h.048c.074,0,.148-.024.22-.024h.05c.1-.026.172-.026.27-.05a3.924,3.924,0,0,0,.562-.122h.05c.072-.024.17-.024.244-.05h.024c.2-.048.368-.1.564-.146a21.9,21.9,0,0,1-5.46-.514,17.143,17.143,0,0,1-7.446-3.454,15.088,15.088,0,0,1-5.436-11.73,14.254,14.254,0,0,1,3.354-9.11A14.546,14.546,0,0,1,32.734,20.44H33.3V17.184h-.636a18.372,18.372,0,0,0-3.674.44,17.66,17.66,0,0,0-3.526,1.2,18.048,18.048,0,0,0-3.234,1.96,17.236,17.236,0,0,0-2.816,2.694A16.666,16.666,0,0,0,17.38,26.49a17.22,17.22,0,0,0-1.348,3.256,17.8,17.8,0,0,0-.66,3.406L15.3,34.228v.636a18.433,18.433,0,0,0,.44,3.674,17.679,17.679,0,0,0,1.2,3.528,15.213,15.213,0,0,0,3.356,4.824,18.94,18.94,0,0,0,11.754,4.066h.442Z" fill="#fff"/><path d="M37.828,47.82a24.908,24.908,0,0,1-3.6-.392c-5.044-.906-9.38-3.992-10.97-8.644a10.658,10.658,0,0,1,6.66-13.64,10.42,10.42,0,0,1,3.33-.54,11.256,11.256,0,0,1,4.214.832l1.37-2.914q-.618-.248-1.248-.464a14.426,14.426,0,0,0-4.336-.662,13.832,13.832,0,0,0-9.158,3.5,14.04,14.04,0,0,0-1.836,1.984,13.32,13.32,0,0,0-1.4,2.278,13.948,13.948,0,0,0-.638,10.652,13.54,13.54,0,0,0,2.94,4.874,15.785,15.785,0,0,0,4.284,3.184,19.278,19.278,0,0,0,6.22,1.74,39.6,39.6,0,0,0,4.58.244c1-.368,1.42-.54,1.96-.76.466-.22.93-.44,1.4-.71s.54-.32,1.322-.832a1.359,1.359,0,0,0,.2-.148,21.766,21.766,0,0,1-5.29.416Z" fill="#fff"/><path d="M43.854,44.172c-.76.048-1.838.12-3.062.12a23.4,23.4,0,0,1-7.126-.954c-3.528-1.174-6.858-4.186-6.858-7.91a6.711,6.711,0,0,1,12.564-3.282L42.286,30.7a9.468,9.468,0,0,0-1.74-2.326A9.943,9.943,0,0,0,23.574,35.4a9.8,9.8,0,0,0,.86,3.968,11.928,11.928,0,0,0,2.13,3.16,14.976,14.976,0,0,0,6.1,3.868,24.578,24.578,0,0,0,8.694.784,18.227,18.227,0,0,0,2.668-.392,18.376,18.376,0,0,0,2.94-2.914C46.2,43.952,44.808,44.1,43.854,44.172Z" fill="#fff"/></g></g></svg>
